svgs/bolt_restaurant.svg

<svg xmlns="http://www.w3.org/2000/svg" width="192" height="192" viewBox="0 0 192 192"><defs><style>.cls-1{fill:none;stroke:#000;stroke-width:10px;stroke-linecap:round}</style></defs><circle cx="96" cy="170.9" r="5.1"/><path class="cls-1" d="M133 126.25v22.32m0-10.84h9.56m0 20.41c-5.93 0-9.44-4.57-9.56-9.57m-12.76-27.43v37"/><circle cx="96" cy="146.66" r="11.48" style="fill:none;stroke:#000;stroke-width:10px"/><path class="cls-1" d="M49.44 121.14v37m0-37h10.84m-10.84 19.14h13.39m-13.39 17.86h13.39m0 0c12.12 0 12.12-17.86 0-17.86"/><path class="cls-1" d="M60.28 140.28c12.12 0 12.12-19.14 0-19.14"/><path d="M79.54 91V21m-14 23V21m28 23V21m-28 23c0 4.42 6.26 8 14 8m14-8c0 4.42-6.27 8-14 8m46.92 39V21" style="stroke-linejoin:round;fill:none;stroke:#000;stroke-width:10px;stroke-linecap:round"/><path d="M126.46 72c-3.63 0-8.86-.47-12.8-3h0a7.71 7.71 0 0 1-3.21-6.19q-.06-13 .21-26h0c.43-4.91 3.89-8.81 7.78-11.61a31.72 31.72 0 0 1 8-4.19" style="fill-rule:evenodd;stroke-linejoin:round;stroke-linecap:round;fill:none;stroke:#000;stroke-width:10px"/></svg>

<svg xmlns="http://www.w3.org/2000/svg" width="192" height="192" viewBox="0 0 192 192"><defs><style>.cls-1,.cls-3{fill:none;stroke:#000;stroke-width:10px;stroke-linecap:round}.cls-3{stroke-linejoin:round}</style></defs><circle cx="96" cy="170.9" r="5.1"/><path class="cls-1" d="M133 126.25v22.32M133 137.73h9.56M142.56 158.14c-5.93 0-9.44-4.57-9.56-9.57M120.24 121.14v37"/><circle cx="96" cy="146.66" r="11.48" style="fill:none;stroke:#000;stroke-width:10px"/><path class="cls-1" d="M49.44 121.14v37M49.44 121.14h10.84M49.44 140.28h13.39M49.44 158.14h13.39M62.83 158.14c12.12 0 12.12-17.86 0-17.86"/><path class="cls-1" d="M60.28 140.28c12.12 0 12.12-19.14 0-19.14"/><path class="cls-3" d="M79.54 91V21M65.54 44V21M93.54 44V21M65.54 44c0 4.42 6.26 8 14 8M93.54 44c0 4.42-6.27 8-14 8M126.46 91V21"/><path d="M126.46 72c-3.63 0-8.86-.47-12.8-3h0a7.71 7.71 0 0 1-3.21-6.19q-.06-13 .21-26h0c.43-4.91 3.89-8.81 7.78-11.61a31.72 31.72 0 0 1 8-4.19" style="fill-rule:evenodd;stroke-linejoin:round;stroke-linecap:round;fill:none;stroke:#000;stroke-width:10px"/></svg>
